packages/tokens/icons/backup/size24Px.svg

<svg viewBox="0 0 24 24" fill="none" xmlns="http://www.w3.org/2000/svg" width="1em" height="1em"><path d="M19.9215 10.3369L19.4327 10.4421L19.9215 10.3369ZM10.7931 4.43017L10.4479 4.79186C10.3513 4.69969 10.2956 4.57272 10.2932 4.43924C10.2908 4.30577 10.3418 4.17686 10.435 4.08124L10.7931 4.43017ZM12.3604 2.10506C12.5531 1.90728 12.8697 1.90316 13.0675 2.09586C13.2652 2.28857 13.2694 2.60512 13.0767 2.80291L12.3604 2.10506ZM13.1006 5.94132C13.3003 6.13198 13.3077 6.44847 13.1171 6.64823C12.9264 6.84799 12.6099 6.85537 12.4101 6.66471L13.1006 5.94132ZM17.6999 6.36085L17.3547 6.72255L17.6999 6.36085ZM18.2273 17.8821C18.0367 18.0819 17.7202 18.0893 17.5204 17.8986C17.3207 17.708 17.3133 17.3915 17.504 17.1917L18.2273 17.8821ZM10.435 4.08124L12.3604 2.10506L13.0767 2.80291L11.1512 4.77909L10.435 4.08124ZM11.1383 4.06847L13.1006 5.94132L12.4101 6.66471L10.4479 4.79186L11.1383 4.06847ZM19.4327 10.4421C19.1248 9.01163 18.3987 7.71896 17.3547 6.72255L18.0451 5.99914C19.2343 7.13418 20.0603 8.60568 20.4103 10.2317L19.4327 10.4421ZM17.3547 6.72255C15.7222 5.16449 13.1327 4.42455 10.9011 4.91836L10.6851 3.94197C13.2452 3.37547 16.1738 4.21317 18.0451 5.99914L17.3547 6.72255ZM17.504 17.1917C19.2093 15.405 19.9461 12.8275 19.4327 10.4421L20.4103 10.2317C20.9945 12.9459 20.1579 15.8595 18.2273 17.8821L17.504 17.1917Z" fill="currentColor"/><path d="M4.06364 13.6631L4.55245 13.5579L4.06364 13.6631ZM13.192 19.5698L13.5372 19.2081C13.6338 19.3003 13.6895 19.4273 13.6919 19.5608C13.6944 19.6942 13.6433 19.8231 13.5501 19.9188L13.192 19.5698ZM11.6247 21.8949C11.432 22.0927 11.1155 22.0968 10.9177 21.9041C10.7199 21.7114 10.7158 21.3949 10.9085 21.1971L11.6247 21.8949ZM10.8846 18.0587C10.6848 17.868 10.6774 17.5515 10.8681 17.3518C11.0587 17.152 11.3752 17.1446 11.575 17.3353L10.8846 18.0587ZM6.28527 17.6392L6.63048 17.2775L6.28527 17.6392ZM5.75779 6.11785C5.94846 5.91809 6.26495 5.91072 6.46471 6.10138C6.66447 6.29204 6.67184 6.60854 6.48118 6.80829L5.75779 6.11785ZM13.5501 19.9188L11.6247 21.8949L10.9085 21.1971L12.8339 19.2209L13.5501 19.9188ZM12.8468 19.9315L10.8846 18.0587L11.575 17.3353L13.5372 19.2081L12.8468 19.9315ZM4.55245 13.5579C4.86034 14.9884 5.58648 16.281 6.63048 17.2775L5.94006 18.0009C4.75081 16.8658 3.92481 15.3943 3.57484 13.7683L4.55245 13.5579ZM6.63048 17.2775C8.26297 18.8355 10.8524 19.5755 13.084 19.0816L13.3001 20.058C10.7399 20.6245 7.81135 19.7868 5.94006 18.0009L6.63048 17.2775ZM6.48118 6.80829C4.77587 8.59497 4.03902 11.1725 4.55245 13.5579L3.57484 13.7683C2.99065 11.0541 3.82725 8.14051 5.75779 6.11785L6.48118 6.80829Z" fill="currentColor"/><path d="M11.4998 8.5L11.5001 13.5H13.4998" stroke="currentColor" stroke-miterlimit="10" stroke-linecap="round" stroke-linejoin="round"/></svg>

<svg xmlns="http://www.w3.org/2000/svg" fill="none" viewBox="0 0 24 24" width="1em" height="1em"><path fill="currentColor" d="m19.922 10.337-.49.105.49-.105ZM10.793 4.43l-.345.362a.5.5 0 0 1-.013-.71l.358.348Zm1.567-2.325a.5.5 0 0 1 .717.698l-.717-.698Zm.74 3.836a.5.5 0 0 1-.69.724l.69-.724Zm4.6.42-.345.362.345-.362Zm.527 11.521a.5.5 0 1 1-.723-.69l.723.69Zm-7.792-13.8 1.925-1.977.717.698-1.926 1.976-.716-.698Zm.703-.014 1.963 1.873-.69.724-1.963-1.873.69-.724Zm8.295 6.374a7.243 7.243 0 0 0-2.078-3.72l.69-.723a8.243 8.243 0 0 1 2.365 4.233l-.977.21Zm-2.078-3.72c-1.633-1.558-4.222-2.297-6.454-1.804l-.216-.976c2.56-.567 5.489.271 7.36 2.057l-.69.724Zm.149 10.47c1.705-1.787 2.442-4.364 1.929-6.75l.977-.21c.584 2.714-.252 5.628-2.183 7.65l-.723-.69Zm-13.44-3.529.488-.105-.488.105Zm9.128 5.907.345-.362a.5.5 0 0 1 .013.71l-.358-.348Zm-1.567 2.325a.5.5 0 1 1-.716-.698l.716.698Zm-.74-3.836a.5.5 0 1 1 .69-.724l-.69.724Zm-4.6-.42.345-.361-.345.361ZM5.758 6.118a.5.5 0 0 1 .723.69l-.723-.69Zm7.792 13.8-1.925 1.977-.716-.698 1.925-1.976.716.698Zm-.703.014-1.962-1.873.69-.724 1.962 1.873-.69.724Zm-8.295-6.374a7.243 7.243 0 0 0 2.078 3.72L5.94 18a8.243 8.243 0 0 1-2.365-4.233l.977-.21Zm2.078 3.72c1.633 1.558 4.222 2.298 6.454 1.804l.216.976c-2.56.567-5.489-.271-7.36-2.057l.69-.724Zm-.149-10.47c-1.705 1.787-2.442 4.364-1.929 6.75l-.977.21c-.584-2.714.252-5.627 2.183-7.65l.723.69Z"/><path stroke="currentColor" stroke-linecap="round" stroke-linejoin="round" stroke-miterlimit="10" d="M11.5 8.5v5h2"/></svg>
